X: 86
T: POLKA: John Walsh's or Daly's Mill
C: C: John Walsh; S: Polca an Rí; John Walsh
C: Set Leaders: Anton, Sophie
Z: Anton Zille ed.; Bregolas at The Session
N: https://www.soundslice.com/slices/47PCc/
N: https://thesession.org/members/26966/sets/7124
R: Polka
M: 2/4
L: 1/8
Q: 1/4=140
K: Gmaj
|:GB de|dB B/c/B/A/|G>B de|d2 d/e/d/B/|
G>B de|dB B/c/B/A/|GE ED/E/|1 G2 GD:|2 GA Bd||
|:ed B/c/B/A/|GE ED/E/|GB/A/ GB|d2 dB/d/|
ed B/c/B/A/|GE ED/E/|GB/A/ GE|1 G2 Bd:|2 G2 GD||

